src/assets/icons/houses.svg

<svg width="20" height="20" viewBox="0 0 20 20" fill="none" xmlns="http://www.w3.org/2000/svg">
<g clip-path="url(#clip0)">
<path d="M19.8005 7.86877L13.086 2.80548C12.9072 2.67063 12.6609 2.67063 12.482 2.80548L11.3782 3.63785L10.2745 2.80548C10.0956 2.67063 9.84928 2.67063 9.67044 2.80548L8.59417 3.61707L7.5179 2.80548C7.33906 2.67063 7.09273 2.67063 6.91389 2.80548L0.199476 7.86877C0.0738721 7.96356 0 8.11188 0 8.26922V16.794C0 17.071 0.224554 17.2956 0.501557 17.2956H3.25811H6.06955H13.9304H16.687H19.4984C19.7754 17.2956 20 17.071 20 16.794V8.26922C20 8.11188 19.9261 7.96356 19.8005 7.86877ZM18.9969 16.2925H17.1886V8.26922C17.1886 8.11181 17.1147 7.96356 16.989 7.86877L12.2113 4.26601L12.784 3.8341L18.9969 8.51921V16.2925ZM14.432 16.2925V8.26922C14.432 8.11181 14.3581 7.96356 14.2325 7.86877L9.42726 4.24531L9.97252 3.83417L16.1854 8.51929V16.2926H14.432V16.2925ZM8.03737 16.2924H6.57111H6.39456V12.6554H8.03737V16.2924ZM9.04049 16.2924V12.1539C9.04049 11.8768 8.81593 11.6523 8.53893 11.6523H5.893C5.616 11.6523 5.39145 11.8768 5.39145 12.1539V16.2924H3.75967H1.00311V8.51914L7.21597 3.83403L13.4289 8.51914V16.2924H9.04049Z" fill="#0061DF"/>
</g>
<defs>
<clipPath id="clip0">
<rect width="20" height="20" fill="white"/>
</clipPath>
</defs>
</svg>

<svg xmlns="http://www.w3.org/2000/svg" width="20" height="20" fill="none"><g clip-path="url(#a)"><path fill="#0061DF" d="m19.8 7.869-6.714-5.064a.501.501 0 0 0-.604 0l-1.104.833-1.104-.833a.502.502 0 0 0-.604 0l-1.076.812-1.076-.812a.501.501 0 0 0-.604 0L.199 7.87a.502.502 0 0 0-.199.4v8.525c0 .277.225.502.502.502H19.498a.502.502 0 0 0 .502-.502V8.269a.502.502 0 0 0-.2-.4Zm-.803 8.424h-1.808V8.269a.502.502 0 0 0-.2-.4l-4.778-3.603.573-.432 6.213 4.685v7.774Zm-4.565 0V8.269a.502.502 0 0 0-.2-.4L9.428 4.245l.546-.41 6.212 4.684v7.774h-1.753Zm-6.395 0H6.395v-3.638h1.642v3.637Zm1.003 0v-4.14a.502.502 0 0 0-.501-.5H5.893a.502.502 0 0 0-.502.5v4.14H1.003V8.518l6.213-4.685 6.213 4.685v7.773H9.04Z"/></g><defs><clipPath id="a"><path fill="#fff" d="M0 0h20v20H0z"/></clipPath></defs></svg>
